report_00007_2020-12-11T15:55:29.892Z/meta/score/comparison/sorted/12_vs_13.svg

<svg width="640" height="500" xmlns="http://www.w3.org/2000/svg" xmlns:xlink="http://www.w3.org/1999/xlink"><path fill="#fff" d="M0 0h640v500H0z"/><defs><path id="d" stroke-width=".222" stroke="currentColor" d="M-1-1h2v2h-2z"/><path id="b" stroke-width=".222" stroke="currentColor" d="M0-1.33l-1.33 2h2.66z"/><path id="f" stroke-width=".222" stroke="currentColor" d="M0 1.33L1.265.411.782-1.067l-1.564-.009-.483 1.487z"/><use xlink:href="#b" id="c" stroke="currentColor" transform="rotate(180)"/><use xlink:href="#d" id="e" stroke="currentColor" transform="rotate(45)"/><circle id="a" stroke-width=".222" stroke="currentColor" cx="0" cy="0" r="1"/></defs><g fill="none" color="#000" stroke="currentColor"><path stroke="#000" d="M62.2 419.1h9m543.8 0h-9"/><text transform="translate(53.9 423)" stroke="none" fill="#000" font-family="Arial" font-size="12" text-anchor="end"><tspan>0.92</tspan></text></g><g fill="none" color="#000" stroke="currentColor"><path stroke="#000" d="M62.2 368.2h9m543.8 0h-9"/><text transform="translate(53.9 372.1)" stroke="none" fill="#000" font-family="Arial" font-size="12" text-anchor="end"><tspan>0.93</tspan></text></g><g fill="none" color="#000" stroke="currentColor"><path stroke="#000" d="M62.2 317.4h9m543.8 0h-9"/><text transform="translate(53.9 321.3)" stroke="none" fill="#000" font-family="Arial" font-size="12" text-anchor="end"><tspan>0.94</tspan></text></g><g fill="none" color="#000" stroke="currentColor"><path stroke="#000" d="M62.2 266.5h9m543.8 0h-9"/><text transform="translate(53.9 270.4)" stroke="none" fill="#000" font-family="Arial" font-size="12" text-anchor="end"><tspan>0.95</tspan></text></g><g fill="none" color="#000" stroke="currentColor"><path stroke="#000" d="M62.2 215.6h9m543.8 0h-9"/><text transform="translate(53.9 219.5)" stroke="none" fill="#000" font-family="Arial" font-size="12" text-anchor="end"><tspan>0.96</tspan></text></g><g fill="none" color="#000" stroke="currentColor"><path stroke="#000" d="M62.2 164.7h9m543.8 0h-9"/><text transform="translate(53.9 168.6)" stroke="none" fill="#000" font-family="Arial" font-size="12" text-anchor="end"><tspan>0.97</tspan></text></g><g fill="none" color="#000" stroke="currentColor"><path stroke="#000" d="M62.2 113.9h9m543.8 0h-9"/><text transform="translate(53.9 117.8)" stroke="none" fill="#000" font-family="Arial" font-size="12" text-anchor="end"><tspan>0.98</tspan></text></g><g fill="none" color="#000" stroke="currentColor"><path stroke="#000" d="M62.2 63h9M615 63h-9"/><text transform="translate(53.9 66.9)" stroke="none" fill="#000" font-family="Arial" font-size="12" text-anchor="end"><tspan>0.99</tspan></text></g><g fill="none" color="#000" stroke="currentColor"><path stroke="#000" d="M62.2 428v-9m0-400.9v9"/><text transform="translate(62.2 449.9)" stroke="none" fill="#000" font-family="Arial" font-size="12" text-anchor="middle"><tspan>0</tspan></text></g><g fill="none" color="#000" stroke="currentColor"><path stroke="#000" d="M118 428v-9m0-400.9v9"/><text transform="translate(118 449.9)" stroke="none" fill="#000" font-family="Arial" font-size="12" text-anchor="middle"><tspan>10</tspan></text></g><g fill="none" color="#000" stroke="currentColor"><path stroke="#000" d="M173.9 428v-9m0-400.9v9"/><text transform="translate(173.9 449.9)" stroke="none" fill="#000" font-family="Arial" font-size="12" text-anchor="middle"><tspan>20</tspan></text></g><g fill="none" color="#000" stroke="currentColor"><path stroke="#000" d="M229.7 428v-9m0-400.9v9"/><text transform="translate(229.7 449.9)" stroke="none" fill="#000" font-family="Arial" font-size="12" text-anchor="middle"><tspan>30</tspan></text></g><g fill="none" color="#000" stroke="currentColor"><path stroke="#000" d="M285.6 428v-9m0-400.9v9"/><text transform="translate(285.6 449.9)" stroke="none" fill="#000" font-family="Arial" font-size="12" text-anchor="middle"><tspan>40</tspan></text></g><g fill="none" color="#000" stroke="currentColor"><path stroke="#000" d="M341.4 428v-9m0-400.9v9"/><text transform="translate(341.4 449.9)" stroke="none" fill="#000" font-family="Arial" font-size="12" text-anchor="middle"><tspan>50</tspan></text></g><g fill="none" color="#000" stroke="currentColor"><path stroke="#000" d="M397.2 428v-9m0-400.9v9"/><text transform="translate(397.2 449.9)" stroke="none" fill="#000" font-family="Arial" font-size="12" text-anchor="middle"><tspan>60</tspan></text></g><g fill="none" color="#000" stroke="currentColor"><path stroke="#000" d="M453.1 428v-9m0-400.9v9"/><text transform="translate(453.1 449.9)" stroke="none" fill="#000" font-family="Arial" font-size="12" text-anchor="middle"><tspan>70</tspan></text></g><g fill="none" color="#000" stroke="currentColor"><path stroke="#000" d="M508.9 428v-9m0-400.9v9"/><text transform="translate(508.9 449.9)" stroke="none" fill="#000" font-family="Arial" font-size="12" text-anchor="middle"><tspan>80</tspan></text></g><g fill="none" color="#000" stroke="currentColor"><path stroke="#000" d="M564.7 428v-9m0-400.9v9"/><text transform="translate(564.7 449.9)" stroke="none" fill="#000" font-family="Arial" font-size="12" text-anchor="middle"><tspan>90</tspan></text></g><path stroke="#000" d="M62.2 18.1V428H615V18.1H62.2z" fill="none" color="#000"/><text transform="translate(533.3 467.9)" stroke="none" fill="#000" font-family="Arial" font-size="12" text-anchor="end" color="#000"><tspan>pages+cached+noexternal+nofonts+nosvg+noimg+nocss</tspan></text><path stroke="#9400D3" d="M541.6 464h42.2M62.2 420.1l5.6-.3 5.6-.4 5.6-1.7 5.5-18.2 5.6-.4 5.6-2.3 5.6-.1 5.6-.8 5.6-57 5.5-1.4h5.6l5.6-1.9 5.6-.1 5.6-.1 5.6-.2 5.5-.5h5.6l5.6-.1 5.6-.1H190.6l5.6-.1 5.6-.2 5.6-.1h5.6l5.5-.1 5.6-.1h5.6l5.6-.1h5.6l5.6-.1 5.6-.1H274.4l5.6-.2h11.1l5.6-.2H313.5l5.6-.2 5.5-.1h11.2l5.6-.1 5.6-.1h16.7l5.6-.1h11.2l5.6-.2h16.7l5.6-.1h16.7l5.6-.1h33.5l5.6-.1H481l5.6-.1h11.1l5.6-.1 5.6-.1 5.6-.1h11.2l5.5-.1h5.6l5.6-.1 5.6-.1h11.2l5.5-.1h5.6l5.6-.3H592.7l5.5-.1 5.6-.5 5.6-.2 5.6-.1" fill="none" color="#000"/><text transform="translate(533.3 485.9)" stroke="none" fill="#000" font-family="Arial" font-size="12" text-anchor="end" color="#000"><tspan>pages+cached+noexternal+nofonts+nosvg+noimg+nocss+nojs</tspan></text><path stroke="#009E73" d="M541.6 482h42.2M62.2 26.2H190.6l5.6-.1H514.5l5.6-.1H615" fill="none" color="#000"/><g fill="none" color="#000" stroke="currentColor"><path stroke="#000" d="M62.2 18.1V428H615V18.1H62.2z"/></g></svg>

<?xml version="1.0" encoding="utf-8"  standalone="no"?>
<svg 
 width="640" height="500"
 viewBox="0 0 640 500"
 xmlns="http://www.w3.org/2000/svg"
 xmlns:xlink="http://www.w3.org/1999/xlink"
>

<title>Gnuplot</title>
<desc>Produced by GNUPLOT 5.4 patchlevel 0 </desc>

<g id="gnuplot_canvas">

<rect x="0" y="0" width="640" height="500" fill="#ffffff"/>
<defs>

	<circle id='gpDot' r='0.5' stroke-width='0.5' stroke='currentColor'/>
	<path id='gpPt0' stroke-width='0.222' stroke='currentColor' d='M-1,0 h2 M0,-1 v2'/>
	<path id='gpPt1' stroke-width='0.222' stroke='currentColor' d='M-1,-1 L1,1 M1,-1 L-1,1'/>
	<path id='gpPt2' stroke-width='0.222' stroke='currentColor' d='M-1,0 L1,0 M0,-1 L0,1 M-1,-1 L1,1 M-1,1 L1,-1'/>
	<rect id='gpPt3' stroke-width='0.222' stroke='currentColor' x='-1' y='-1' width='2' height='2'/>
	<rect id='gpPt4' stroke-width='0.222' stroke='currentColor' fill='currentColor' x='-1' y='-1' width='2' height='2'/>
	<circle id='gpPt5' stroke-width='0.222' stroke='currentColor' cx='0' cy='0' r='1'/>
	<use xlink:href='#gpPt5' id='gpPt6' fill='currentColor' stroke='none'/>
	<path id='gpPt7' stroke-width='0.222' stroke='currentColor' d='M0,-1.33 L-1.33,0.67 L1.33,0.67 z'/>
	<use xlink:href='#gpPt7' id='gpPt8' fill='currentColor' stroke='none'/>
	<use xlink:href='#gpPt7' id='gpPt9' stroke='currentColor' transform='rotate(180)'/>
	<use xlink:href='#gpPt9' id='gpPt10' fill='currentColor' stroke='none'/>
	<use xlink:href='#gpPt3' id='gpPt11' stroke='currentColor' transform='rotate(45)'/>
	<use xlink:href='#gpPt11' id='gpPt12' fill='currentColor' stroke='none'/>
	<path id='gpPt13' stroke-width='0.222' stroke='currentColor' d='M0,1.330 L1.265,0.411 L0.782,-1.067 L-0.782,-1.076 L-1.265,0.411 z'/>
	<use xlink:href='#gpPt13' id='gpPt14' fill='currentColor' stroke='none'/>
	<filter id='textbox' filterUnits='objectBoundingBox' x='0' y='0' height='1' width='1'>
	  <feFlood flood-color='#FFFFFF' flood-opacity='1' result='bgnd'/>
	  <feComposite in='SourceGraphic' in2='bgnd' operator='atop'/>
	</filter>
	<filter id='greybox' filterUnits='objectBoundingBox' x='0' y='0' height='1' width='1'>
	  <feFlood flood-color='lightgrey' flood-opacity='1' result='grey'/>
	  <feComposite in='SourceGraphic' in2='grey' operator='atop'/>
	</filter>
</defs>
<g fill="none" color="#FFFFFF" stroke="black" stroke-width="1.00" stroke-linecap="butt" stroke-linejoin="miter">
</g>
<g fill="none" color="black" stroke="currentColor" stroke-width="1.00" stroke-linecap="butt" stroke-linejoin="miter">
	<path stroke='black'  d='M62.2,419.1 L71.2,419.1 M615.0,419.1 L606.0,419.1  '/>	<g transform="translate(53.9,423.0)" stroke="none" fill="black" font-family="Arial" font-size="12.00"  text-anchor="end">
		<text><tspan font-family="Arial" > 0.92</tspan></text>
	</g>
</g>
<g fill="none" color="black" stroke="currentColor" stroke-width="1.00" stroke-linecap="butt" stroke-linejoin="miter">
	<path stroke='black'  d='M62.2,368.2 L71.2,368.2 M615.0,368.2 L606.0,368.2  '/>	<g transform="translate(53.9,372.1)" stroke="none" fill="black" font-family="Arial" font-size="12.00"  text-anchor="end">
		<text><tspan font-family="Arial" > 0.93</tspan></text>
	</g>
</g>
<g fill="none" color="black" stroke="currentColor" stroke-width="1.00" stroke-linecap="butt" stroke-linejoin="miter">
	<path stroke='black'  d='M62.2,317.4 L71.2,317.4 M615.0,317.4 L606.0,317.4  '/>	<g transform="translate(53.9,321.3)" stroke="none" fill="black" font-family="Arial" font-size="12.00"  text-anchor="end">
		<text><tspan font-family="Arial" > 0.94</tspan></text>
	</g>
</g>
<g fill="none" color="black" stroke="currentColor" stroke-width="1.00" stroke-linecap="butt" stroke-linejoin="miter">
	<path stroke='black'  d='M62.2,266.5 L71.2,266.5 M615.0,266.5 L606.0,266.5  '/>	<g transform="translate(53.9,270.4)" stroke="none" fill="black" font-family="Arial" font-size="12.00"  text-anchor="end">
		<text><tspan font-family="Arial" > 0.95</tspan></text>
	</g>
</g>
<g fill="none" color="black" stroke="currentColor" stroke-width="1.00" stroke-linecap="butt" stroke-linejoin="miter">
	<path stroke='black'  d='M62.2,215.6 L71.2,215.6 M615.0,215.6 L606.0,215.6  '/>	<g transform="translate(53.9,219.5)" stroke="none" fill="black" font-family="Arial" font-size="12.00"  text-anchor="end">
		<text><tspan font-family="Arial" > 0.96</tspan></text>
	</g>
</g>
<g fill="none" color="black" stroke="currentColor" stroke-width="1.00" stroke-linecap="butt" stroke-linejoin="miter">
	<path stroke='black'  d='M62.2,164.7 L71.2,164.7 M615.0,164.7 L606.0,164.7  '/>	<g transform="translate(53.9,168.6)" stroke="none" fill="black" font-family="Arial" font-size="12.00"  text-anchor="end">
		<text><tspan font-family="Arial" > 0.97</tspan></text>
	</g>
</g>
<g fill="none" color="black" stroke="currentColor" stroke-width="1.00" stroke-linecap="butt" stroke-linejoin="miter">
	<path stroke='black'  d='M62.2,113.9 L71.2,113.9 M615.0,113.9 L606.0,113.9  '/>	<g transform="translate(53.9,117.8)" stroke="none" fill="black" font-family="Arial" font-size="12.00"  text-anchor="end">
		<text><tspan font-family="Arial" > 0.98</tspan></text>
	</g>
</g>
<g fill="none" color="black" stroke="currentColor" stroke-width="1.00" stroke-linecap="butt" stroke-linejoin="miter">
	<path stroke='black'  d='M62.2,63.0 L71.2,63.0 M615.0,63.0 L606.0,63.0  '/>	<g transform="translate(53.9,66.9)" stroke="none" fill="black" font-family="Arial" font-size="12.00"  text-anchor="end">
		<text><tspan font-family="Arial" > 0.99</tspan></text>
	</g>
</g>
<g fill="none" color="black" stroke="currentColor" stroke-width="1.00" stroke-linecap="butt" stroke-linejoin="miter">
	<path stroke='black'  d='M62.2,428.0 L62.2,419.0 M62.2,18.1 L62.2,27.1  '/>	<g transform="translate(62.2,449.9)" stroke="none" fill="black" font-family="Arial" font-size="12.00"  text-anchor="middle">
		<text><tspan font-family="Arial" > 0</tspan></text>
	</g>
</g>
<g fill="none" color="black" stroke="currentColor" stroke-width="1.00" stroke-linecap="butt" stroke-linejoin="miter">
	<path stroke='black'  d='M118.0,428.0 L118.0,419.0 M118.0,18.1 L118.0,27.1  '/>	<g transform="translate(118.0,449.9)" stroke="none" fill="black" font-family="Arial" font-size="12.00"  text-anchor="middle">
		<text><tspan font-family="Arial" > 10</tspan></text>
	</g>
</g>
<g fill="none" color="black" stroke="currentColor" stroke-width="1.00" stroke-linecap="butt" stroke-linejoin="miter">
	<path stroke='black'  d='M173.9,428.0 L173.9,419.0 M173.9,18.1 L173.9,27.1  '/>	<g transform="translate(173.9,449.9)" stroke="none" fill="black" font-family="Arial" font-size="12.00"  text-anchor="middle">
		<text><tspan font-family="Arial" > 20</tspan></text>
	</g>
</g>
<g fill="none" color="black" stroke="currentColor" stroke-width="1.00" stroke-linecap="butt" stroke-linejoin="miter">
	<path stroke='black'  d='M229.7,428.0 L229.7,419.0 M229.7,18.1 L229.7,27.1  '/>	<g transform="translate(229.7,449.9)" stroke="none" fill="black" font-family="Arial" font-size="12.00"  text-anchor="middle">
		<text><tspan font-family="Arial" > 30</tspan></text>
	</g>
</g>
<g fill="none" color="black" stroke="currentColor" stroke-width="1.00" stroke-linecap="butt" stroke-linejoin="miter">
	<path stroke='black'  d='M285.6,428.0 L285.6,419.0 M285.6,18.1 L285.6,27.1  '/>	<g transform="translate(285.6,449.9)" stroke="none" fill="black" font-family="Arial" font-size="12.00"  text-anchor="middle">
		<text><tspan font-family="Arial" > 40</tspan></text>
	</g>
</g>
<g fill="none" color="black" stroke="currentColor" stroke-width="1.00" stroke-linecap="butt" stroke-linejoin="miter">
	<path stroke='black'  d='M341.4,428.0 L341.4,419.0 M341.4,18.1 L341.4,27.1  '/>	<g transform="translate(341.4,449.9)" stroke="none" fill="black" font-family="Arial" font-size="12.00"  text-anchor="middle">
		<text><tspan font-family="Arial" > 50</tspan></text>
	</g>
</g>
<g fill="none" color="black" stroke="currentColor" stroke-width="1.00" stroke-linecap="butt" stroke-linejoin="miter">
	<path stroke='black'  d='M397.2,428.0 L397.2,419.0 M397.2,18.1 L397.2,27.1  '/>	<g transform="translate(397.2,449.9)" stroke="none" fill="black" font-family="Arial" font-size="12.00"  text-anchor="middle">
		<text><tspan font-family="Arial" > 60</tspan></text>
	</g>
</g>
<g fill="none" color="black" stroke="currentColor" stroke-width="1.00" stroke-linecap="butt" stroke-linejoin="miter">
	<path stroke='black'  d='M453.1,428.0 L453.1,419.0 M453.1,18.1 L453.1,27.1  '/>	<g transform="translate(453.1,449.9)" stroke="none" fill="black" font-family="Arial" font-size="12.00"  text-anchor="middle">
		<text><tspan font-family="Arial" > 70</tspan></text>
	</g>
</g>
<g fill="none" color="black" stroke="currentColor" stroke-width="1.00" stroke-linecap="butt" stroke-linejoin="miter">
	<path stroke='black'  d='M508.9,428.0 L508.9,419.0 M508.9,18.1 L508.9,27.1  '/>	<g transform="translate(508.9,449.9)" stroke="none" fill="black" font-family="Arial" font-size="12.00"  text-anchor="middle">
		<text><tspan font-family="Arial" > 80</tspan></text>
	</g>
</g>
<g fill="none" color="black" stroke="currentColor" stroke-width="1.00" stroke-linecap="butt" stroke-linejoin="miter">
	<path stroke='black'  d='M564.7,428.0 L564.7,419.0 M564.7,18.1 L564.7,27.1  '/>	<g transform="translate(564.7,449.9)" stroke="none" fill="black" font-family="Arial" font-size="12.00"  text-anchor="middle">
		<text><tspan font-family="Arial" > 90</tspan></text>
	</g>
</g>
<g fill="none" color="black" stroke="currentColor" stroke-width="1.00" stroke-linecap="butt" stroke-linejoin="miter">
</g>
<g fill="none" color="black" stroke="currentColor" stroke-width="1.00" stroke-linecap="butt" stroke-linejoin="miter">
	<path stroke='black'  d='M62.2,18.1 L62.2,428.0 L615.0,428.0 L615.0,18.1 L62.2,18.1 Z  '/></g>
<g fill="none" color="black" stroke="currentColor" stroke-width="1.00" stroke-linecap="butt" stroke-linejoin="miter">
</g>
	<g id="gnuplot_plot_1" ><title>pages+cached+noexternal+nofonts+nosvg+noimg+nocss</title>
<g fill="none" color="black" stroke="currentColor" stroke-width="1.00" stroke-linecap="butt" stroke-linejoin="miter">
	<g transform="translate(533.3,467.9)" stroke="none" fill="black" font-family="Arial" font-size="12.00"  text-anchor="end">
		<text><tspan font-family="Arial" >pages+cached+noexternal+nofonts+nosvg+noimg+nocss</tspan></text>
	</g>
</g>
<g fill="none" color="black" stroke="currentColor" stroke-width="1.00" stroke-linecap="butt" stroke-linejoin="miter">
	<path stroke='rgb(148,   0, 211)'  d='M541.6,464.0 L583.8,464.0 M62.2,420.1 L67.8,419.8 L73.4,419.4 L79.0,417.7 L84.5,399.5 L90.1,399.1
		L95.7,396.8 L101.3,396.7 L106.9,395.9 L112.5,338.9 L118.0,337.5 L123.6,337.5 L129.2,335.6 L134.8,335.5
		L140.4,335.4 L146.0,335.2 L151.5,334.7 L157.1,334.7 L162.7,334.6 L168.3,334.5 L173.9,334.5 L179.5,334.5
		L185.0,334.5 L190.6,334.5 L196.2,334.4 L201.8,334.2 L207.4,334.1 L213.0,334.1 L218.5,334.0 L224.1,333.9
		L229.7,333.9 L235.3,333.8 L240.9,333.8 L246.5,333.7 L252.1,333.6 L257.6,333.6 L263.2,333.6 L268.8,333.6
		L274.4,333.6 L280.0,333.4 L285.6,333.4 L291.1,333.4 L296.7,333.2 L302.3,333.2 L307.9,333.2 L313.5,333.2
		L319.1,333.0 L324.6,332.9 L330.2,332.9 L335.8,332.9 L341.4,332.8 L347.0,332.7 L352.6,332.7 L358.1,332.7
		L363.7,332.7 L369.3,332.6 L374.9,332.6 L380.5,332.6 L386.1,332.4 L391.6,332.4 L397.2,332.4 L402.8,332.4
		L408.4,332.3 L414.0,332.3 L419.6,332.3 L425.1,332.3 L430.7,332.2 L436.3,332.2 L441.9,332.2 L447.5,332.2
		L453.1,332.2 L458.7,332.2 L464.2,332.2 L469.8,332.1 L475.4,332.1 L481.0,332.1 L486.6,332.0 L492.2,332.0
		L497.7,332.0 L503.3,331.9 L508.9,331.8 L514.5,331.7 L520.1,331.7 L525.7,331.7 L531.2,331.6 L536.8,331.6
		L542.4,331.5 L548.0,331.4 L553.6,331.4 L559.2,331.4 L564.7,331.3 L570.3,331.3 L575.9,331.0 L581.5,331.0
		L587.1,331.0 L592.7,331.0 L598.2,330.9 L603.8,330.4 L609.4,330.2 L615.0,330.1  '/></g>
	</g>
	<g id="gnuplot_plot_2" ><title>pages+cached+noexternal+nofonts+nosvg+noimg+nocss+nojs</title>
<g fill="none" color="black" stroke="currentColor" stroke-width="1.00" stroke-linecap="butt" stroke-linejoin="miter">
	<g transform="translate(533.3,485.9)" stroke="none" fill="black" font-family="Arial" font-size="12.00"  text-anchor="end">
		<text><tspan font-family="Arial" >pages+cached+noexternal+nofonts+nosvg+noimg+nocss+nojs</tspan></text>
	</g>
</g>
<g fill="none" color="black" stroke="currentColor" stroke-width="1.00" stroke-linecap="butt" stroke-linejoin="miter">
	<path stroke='rgb(  0, 158, 115)'  d='M541.6,482.0 L583.8,482.0 M62.2,26.2 L67.8,26.2 L73.4,26.2 L79.0,26.2 L84.5,26.2 L90.1,26.2
		L95.7,26.2 L101.3,26.2 L106.9,26.2 L112.5,26.2 L118.0,26.2 L123.6,26.2 L129.2,26.2 L134.8,26.2
		L140.4,26.2 L146.0,26.2 L151.5,26.2 L157.1,26.2 L162.7,26.2 L168.3,26.2 L173.9,26.2 L179.5,26.2
		L185.0,26.2 L190.6,26.2 L196.2,26.1 L201.8,26.1 L207.4,26.1 L213.0,26.1 L218.5,26.1 L224.1,26.1
		L229.7,26.1 L235.3,26.1 L240.9,26.1 L246.5,26.1 L252.1,26.1 L257.6,26.1 L263.2,26.1 L268.8,26.1
		L274.4,26.1 L280.0,26.1 L285.6,26.1 L291.1,26.1 L296.7,26.1 L302.3,26.1 L307.9,26.1 L313.5,26.1
		L319.1,26.1 L324.6,26.1 L330.2,26.1 L335.8,26.1 L341.4,26.1 L347.0,26.1 L352.6,26.1 L358.1,26.1
		L363.7,26.1 L369.3,26.1 L374.9,26.1 L380.5,26.1 L386.1,26.1 L391.6,26.1 L397.2,26.1 L402.8,26.1
		L408.4,26.1 L414.0,26.1 L419.6,26.1 L425.1,26.1 L430.7,26.1 L436.3,26.1 L441.9,26.1 L447.5,26.1
		L453.1,26.1 L458.7,26.1 L464.2,26.1 L469.8,26.1 L475.4,26.1 L481.0,26.1 L486.6,26.1 L492.2,26.1
		L497.7,26.1 L503.3,26.1 L508.9,26.1 L514.5,26.1 L520.1,26.0 L525.7,26.0 L531.2,26.0 L536.8,26.0
		L542.4,26.0 L548.0,26.0 L553.6,26.0 L559.2,26.0 L564.7,26.0 L570.3,26.0 L575.9,26.0 L581.5,26.0
		L587.1,26.0 L592.7,26.0 L598.2,26.0 L603.8,26.0 L609.4,26.0 L615.0,26.0  '/></g>
	</g>
<g fill="none" color="#FFFFFF" stroke="rgb(  0, 158, 115)" stroke-width="2.00" stroke-linecap="butt" stroke-linejoin="miter">
</g>
<g fill="none" color="black" stroke="currentColor" stroke-width="2.00" stroke-linecap="butt" stroke-linejoin="miter">
</g>
<g fill="none" color="black" stroke="black" stroke-width="1.00" stroke-linecap="butt" stroke-linejoin="miter">
</g>
<g fill="none" color="black" stroke="currentColor" stroke-width="1.00" stroke-linecap="butt" stroke-linejoin="miter">
	<path stroke='black'  d='M62.2,18.1 L62.2,428.0 L615.0,428.0 L615.0,18.1 L62.2,18.1 Z  '/></g>
<g fill="none" color="black" stroke="currentColor" stroke-width="1.00" stroke-linecap="butt" stroke-linejoin="miter">
</g>
</g>
</svg>
